X:8
T:Marquis of Huntly's Farewell, The
R:strathspey
C:William Marshall (1748-1833)
D:Tommy Peoples
Z:id:hn-strathspey-8
M:C
L:1/8
K:A
A,2 ~A,2 C<E E2|:A>B c>A B>A B<c|A,2 ~A,2 C<E E>c|B/A/B/c/ d/c/B/A/ F3A|
E<A, ~A,2 C<E E2|A>B c>A B>A B<c|d>c d>f e<c c>a|1 B/A/B/c/ d/c/B/A/ F3A|
EA, ~A,2 C<E E2:|2 B/A/B/c/ d/c/B/A/ F3e|:f/e/d/c/ a>c b>c a2|
f/e/d/c/ a>g f>e d>c|B<b b>f a/g/f/e/ b2|B<b b>f a>g f>e|
f/e/d/c/ a>c b>c a2|f/e/d/c/ a>g f>e d>c|d/e/f/g/ a/g/f/e/ f/e/d/c/ d/c/B/A/|
[1 B/A/B/c/ d/c/B/A/ F3e:|2 B/A/B/c/ d/c/B/A/ B/A/G/F/ E/D/C/B,/||

